static/learn_white.svg

<?xml version="1.0" encoding="UTF-8"?>
<svg width="92px" height="69px" viewBox="0 0 92 69" version="1.1" xmlns="http://www.w3.org/2000/svg" xmlns:xlink="http://www.w3.org/1999/xlink">
    <!-- Generator: Sketch 64 (93537) - https://sketch.com -->
    <title>learn_white</title>
    <desc>Created with Sketch.</desc>
    <defs>
        <linearGradient x1="0%" y1="50%" x2="100%" y2="50%" id="linearGradient-1">
            <stop stop-color="#F8B700" offset="0%"></stop>
            <stop stop-color="#FFD900" offset="99%"></stop>
        </linearGradient>
    </defs>
    <g id="页面-1" stroke="none" stroke-width="1" fill="none" fill-rule="evenodd">
        <g id="learn_white" transform="translate(-6.000000, -19.000000)">
            <path d="M91.05,25 L91.05,19.5 L57,19.5 L52,24.5 L47,19.5 L12.92,19.5 L12.92,25 L6.5,25 L6.5,84.55 L20.33,84.55 L17.91,82.13 L17.91,82.13 L8.91,82.13 L8.91,27.43 L12.91,27.43 L12.91,78.55 L21.48,78.55 L23.32,76.72 L23.92,76.11 L15.36,76.11 L15.36,21.94 L46,21.94 L50.78,26.72 L50.78,30.91 C51.5652633,30.4924708 52.380912,30.1347888 53.22,29.84 L53.22,26.72 L58,21.94 L88.61,21.94 L88.61,76.11 L57,76.11 L53.24,79.88 L53.24,68.46 C52.400912,68.1652112 51.5852633,67.8075292 50.8,67.39 L50.8,79.88 L47,76.11 L42.5,76.11 L40.06,78.55 L46,78.55 L49.56,82.11 L36.5,82.11 L34.06,84.55 L97.47,84.55 L97.47,25 L91.05,25 Z M54.44,82.11 L58,78.55 L91.05,78.55 L91.05,27.43 L95.05,27.43 L95.05,82.11 L54.44,82.11 Z" id="形状" fill="#FFFFFF" fill-rule="nonzero"></path>
            <path d="M84.62,39.49 L84.62,41.93 L79.44,41.93 C79.1307195,41.0919948 78.7631544,40.2766686 78.34,39.49 L84.62,39.49 Z" id="路径" fill="#FFFFFF" fill-rule="nonzero"></path>
            <path d="M84.62,56.37 L84.62,58.81 L78.34,58.81 C78.7631544,58.0233314 79.1307195,57.2080052 79.44,56.37 L84.62,56.37 Z" id="路径" fill="#FFFFFF" fill-rule="nonzero"></path>
            <path d="M84.62,47.93 L84.62,50.37 L80.71,50.37 C80.71,49.97 80.71,49.56 80.71,49.15 C80.71,48.74 80.71,48.33 80.71,47.93 L84.62,47.93 Z" id="路径" fill="#FFFFFF" fill-rule="nonzero"></path>
            <rect id="矩形" fill="#FFFFFF" fill-rule="nonzero" transform="translate(62.765000, 27.400000) rotate(-90.000000) translate(-62.765000, -27.400000) " x="61.545" y="23.125" width="2.44" height="8.55"></rect>
            <polygon id="路径" fill="#FFFFFF" fill-rule="nonzero" points="28.96 86.11 27.2 87.88 21.45 82.13 21.47 82.11 23.22 80.36 24.97 82.11 27.4 84.55"></polygon>
            <polygon id="路径" fill="#FFFFFF" fill-rule="nonzero" points="21.47 82.11 21.45 82.13 21.43 82.11"></polygon>
            <polygon id="路径" fill="#FFFFFF" fill-rule="nonzero" points="25.15 78.55 25.03 78.55 25.09 78.49 25.1 78.49"></polygon>
            <polygon id="路径" fill="url(#linearGradient-1)" fill-rule="nonzero" points="30.84 84.23 25.1 78.49 41.71 61.87 43.7 63.86 47.45 67.62"></polygon>
            <path d="M60.21,31.1096842 C53.1191125,31.0681287 46.6643653,35.1932795 43.7240673,41.6459601 C40.7837692,48.0986406 41.9058696,55.6763395 46.59,61 L43.7,63.86 L45.47,65.62 L46.58,64.51 L48.36,62.73 C54.3942907,67.9437865 63.1398822,68.5655589 69.8511036,64.2579213 C76.5623249,59.9502837 79.6391507,51.7402219 77.4119852,44.0828093 C75.1848197,36.4253967 68.1846423,31.1462406 60.21,31.1096842 Z M47.66,58.3 C43.6747934,52.8508964 43.6747934,45.4491036 47.66,40 L47.66,58.3 Z M72.36,58.81 L58.49,58.81 L58.49,61.25 L70,61.25 C64.17516,65.949413 55.8252525,65.8190114 50.15,60.94 L50.15,37.36 C55.8252525,32.4809886 64.17516,32.350587 70,37.05 L58.49,37.05 L58.49,39.49 L72.36,39.49 C74.2948937,41.904518 75.4586571,44.8452853 75.7,47.93 L58.49,47.93 L58.49,50.37 L75.7,50.37 C75.4586571,53.4547147 74.2948937,56.395482 72.36,58.81 L72.36,58.81 Z" id="形状" fill="#FFFFFF" fill-rule="nonzero"></path>
            <rect id="矩形" fill="#FFFFFF" fill-rule="nonzero" x="30.04" y="31.58" width="2.4" height="2.5"></rect>
            <rect id="矩形" fill="#FFFFFF" fill-rule="nonzero" x="24.77" y="31.58" width="2.4" height="2.5"></rect>
            <rect id="矩形" fill="#FFFFFF" fill-rule="nonzero" x="19.5" y="31.58" width="2.39" height="2.5"></rect>
            <rect id="矩形" fill="#FFFFFF" fill-rule="nonzero" x="40.59" y="31.58" width="2.4" height="2.5"></rect>
            <rect id="矩形" fill="#FFFFFF" fill-rule="nonzero" x="35.32" y="31.58" width="2.39" height="2.5"></rect>
            <rect id="矩形" fill="#FFFFFF" fill-rule="nonzero" x="30.04" y="37.02" width="2.4" height="2.5"></rect>
            <rect id="矩形" fill="#FFFFFF" fill-rule="nonzero" x="24.77" y="37.02" width="2.4" height="2.5"></rect>
            <rect id="矩形" fill="#FFFFFF" fill-rule="nonzero" x="19.5" y="37.02" width="2.39" height="2.5"></rect>
            <rect id="矩形" fill="#FFFFFF" fill-rule="nonzero" x="40.59" y="37.02" width="2.4" height="2.5"></rect>
            <rect id="矩形" fill="#FFFFFF" fill-rule="nonzero" x="35.32" y="37.02" width="2.39" height="2.5"></rect>
            <rect id="矩形" fill="#FFFFFF" fill-rule="nonzero" x="30.04" y="42.46" width="2.4" height="2.5"></rect>
            <rect id="矩形" fill="#FFFFFF" fill-rule="nonzero" x="24.77" y="42.46" width="2.4" height="2.5"></rect>
            <rect id="矩形" fill="#FFFFFF" fill-rule="nonzero" x="19.5" y="42.46" width="2.39" height="2.5"></rect>
            <rect id="矩形" fill="#FFFFFF" fill-rule="nonzero" x="35.32" y="42.46" width="2.39" height="2.5"></rect>
            <rect id="矩形" fill="#FFFFFF" fill-rule="nonzero" x="30.04" y="47.9" width="2.4" height="2.5"></rect>
            <rect id="矩形" fill="#FFFFFF" fill-rule="nonzero" x="24.77" y="47.9" width="2.4" height="2.5"></rect>
            <rect id="矩形" fill="#FFFFFF" fill-rule="nonzero" x="19.5" y="47.9" width="2.39" height="2.5"></rect>
            <rect id="矩形" fill="#FFFFFF" fill-rule="nonzero" x="35.32" y="47.9" width="2.39" height="2.5"></rect>
            <rect id="矩形" x="0" y="0" width="104" height="104"></rect>
        </g>
    </g>
</svg>

<svg id="Icons" xmlns="http://www.w3.org/2000/svg" xmlns:xlink="http://www.w3.org/1999/xlink" viewBox="0 0 104 104"><defs><style>.cls-1{fill:#1f2834;}.cls-2{fill:#fff;}.cls-3{fill:url(#Dégradé_sans_nom_970);}.cls-4{fill:none;}</style><linearGradient id="Dégradé_sans_nom_970" x1="25.1" y1="73.05" x2="47.45" y2="73.05" gradientUnits="userSpaceOnUse"><stop offset="0" stop-color="#f8b700"/><stop offset="0.99" stop-color="#ffd900"/></linearGradient></defs><title>Learn - 104x104 - white bg copie</title><path class="cls-1" d="M91.05,25V19.5H57l-5,5-5-5H12.92V25H6.5V84.55H20.33l-2.42-2.42,0,0h-9V27.43h4V78.55h8.57l1.84-1.83.6-.61H15.36V21.94H46l4.78,4.78v4.19a17.68,17.68,0,0,1,2.44-1.07V26.72L58,21.94H88.61V76.11H57l-3.76,3.77V68.46a17.68,17.68,0,0,1-2.44-1.07V79.88L47,76.11H42.5l-2.44,2.44H46l3.56,3.56H36.5l-2.44,2.44H97.47V25ZM54.44,82.11,58,78.55H91.05V27.43h4V82.11Z"/><path class="cls-1" d="M84.62,39.49v2.44H79.44a19.14,19.14,0,0,0-1.1-2.44Z"/><path class="cls-1" d="M84.62,56.37v2.44H78.34a19.14,19.14,0,0,0,1.1-2.44Z"/><path class="cls-1" d="M84.62,47.93v2.44H80.71c0-.4,0-.81,0-1.22s0-.82,0-1.22Z"/><rect class="cls-1" x="61.54" y="23.12" width="2.44" height="8.55" transform="translate(35.37 90.16) rotate(-90)"/><polygon class="cls-1" points="28.96 86.11 27.2 87.88 21.45 82.13 21.47 82.11 23.22 80.36 24.97 82.11 27.4 84.55 28.96 86.11"/><polygon class="cls-2" points="21.47 82.11 21.45 82.13 21.43 82.11 21.47 82.11"/><polygon class="cls-2" points="25.15 78.55 25.03 78.55 25.09 78.49 25.1 78.49 25.15 78.55"/><polygon class="cls-3" points="47.45 67.62 30.84 84.23 25.1 78.49 41.71 61.87 43.7 63.86 47.45 67.62"/><path class="cls-1" d="M60.21,31.11A18,18,0,0,0,46.59,61L43.7,63.86l1.77,1.76,1.11-1.11,1.78-1.78A18,18,0,1,0,60.21,31.11ZM47.66,58.3a15.5,15.5,0,0,1,0-18.3Zm24.7.51H58.49v2.44H70a15.51,15.51,0,0,1-19.85-.31V37.36A15.51,15.51,0,0,1,70,37.05H58.49v2.44H72.36a15.42,15.42,0,0,1,3.34,8.44H58.49v2.44H75.7A15.42,15.42,0,0,1,72.36,58.81Z"/><rect class="cls-1" x="30.04" y="31.58" width="2.4" height="2.5"/><rect class="cls-1" x="24.77" y="31.58" width="2.4" height="2.5"/><rect class="cls-1" x="19.5" y="31.58" width="2.39" height="2.5"/><rect class="cls-1" x="40.59" y="31.58" width="2.4" height="2.5"/><rect class="cls-1" x="35.32" y="31.58" width="2.39" height="2.5"/><rect class="cls-1" x="30.04" y="37.02" width="2.4" height="2.5"/><rect class="cls-1" x="24.77" y="37.02" width="2.4" height="2.5"/><rect class="cls-1" x="19.5" y="37.02" width="2.39" height="2.5"/><rect class="cls-1" x="40.59" y="37.02" width="2.4" height="2.5"/><rect class="cls-1" x="35.32" y="37.02" width="2.39" height="2.5"/><rect class="cls-1" x="30.04" y="42.46" width="2.4" height="2.5"/><rect class="cls-1" x="24.77" y="42.46" width="2.4" height="2.5"/><rect class="cls-1" x="19.5" y="42.46" width="2.39" height="2.5"/><rect class="cls-1" x="35.32" y="42.46" width="2.39" height="2.5"/><rect class="cls-1" x="30.04" y="47.9" width="2.4" height="2.5"/><rect class="cls-1" x="24.77" y="47.9" width="2.4" height="2.5"/><rect class="cls-1" x="19.5" y="47.9" width="2.39" height="2.5"/><rect class="cls-1" x="35.32" y="47.9" width="2.39" height="2.5"/><rect class="cls-4" width="104" height="104"/></svg>
